svg/Tango/actions/appointment-new.svg

<?xml version="1.0" encoding="UTF-8" standalone="no"?>
<!-- Created with Inkscape (http://www.inkscape.org/) -->
<svg
   xmlns:dc="http://purl.org/dc/elements/1.1/"
   xmlns:cc="http://creativecommons.org/ns#"
   xmlns:rdf="http://www.w3.org/1999/02/22-rdf-syntax-ns#"
   xmlns:svg="http://www.w3.org/2000/svg"
   xmlns="http://www.w3.org/2000/svg"
   xmlns:xlink="http://www.w3.org/1999/xlink"
   xmlns:sodipodi="http://sodipodi.sourceforge.net/DTD/sodipodi-0.dtd"
   xmlns:inkscape="http://www.inkscape.org/namespaces/inkscape"
   inkscape:export-ydpi="90.000000"
   inkscape:export-xdpi="90.000000"
   inkscape:export-filename="/home/jimmac/Desktop/wi-fi.png"
   width="48px"
   height="48px"
   id="svg11300"
   sodipodi:version="0.32"
   inkscape:version="0.46"
   sodipodi:docbase="/home/tigert/cvs/freedesktop.org/tango-icon-theme/scalable/actions"
   sodipodi:docname="appointment-new.svg"
   inkscape:output_extension="org.inkscape.output.svg.inkscape">
  <defs
     id="defs3">
    <inkscape:perspective
       sodipodi:type="inkscape:persp3d"
       inkscape:vp_x="0 : 24 : 1"
       inkscape:vp_y="0 : 1000 : 0"
       inkscape:vp_z="48 : 24 : 1"
       inkscape:persp3d-origin="24 : 16 : 1"
       id="perspective59" />
    <linearGradient
       inkscape:collect="always"
       id="linearGradient5204">
      <stop
         style="stop-color:#c4a000;stop-opacity:1;"
         offset="0"
         id="stop5206" />
      <stop
         style="stop-color:#c4a000;stop-opacity:0;"
         offset="1"
         id="stop5208" />
    </linearGradient>
    <linearGradient
       inkscape:collect="always"
       id="linearGradient5196">
      <stop
         style="stop-color:#c4a000;stop-opacity:1;"
         offset="0"
         id="stop5198" />
      <stop
         style="stop-color:#c4a000;stop-opacity:0;"
         offset="1"
         id="stop5200" />
    </linearGradient>
    <linearGradient
       id="linearGradient12512">
      <stop
         style="stop-color:#ffffff;stop-opacity:1.0000000;"
         offset="0.0000000"
         id="stop12513" />
      <stop
         style="stop-color:#fff520;stop-opacity:0.89108908;"
         offset="0.50000000"
         id="stop12517" />
      <stop
         style="stop-color:#fff300;stop-opacity:0.0000000;"
         offset="1.0000000"
         id="stop12514" />
    </linearGradient>
    <radialGradient
       inkscape:collect="always"
       xlink:href="#linearGradient12512"
       id="radialGradient278"
       gradientUnits="userSpaceOnUse"
       cx="55.000000"
       cy="125.00000"
       fx="55.000000"
       fy="125.00000"
       r="14.375000" />
    <linearGradient
       id="linearGradient10653">
      <stop
         style="stop-color:#f3f4ff;stop-opacity:1.0000000;"
         offset="0.0000000"
         id="stop10655" />
      <stop
         style="stop-color:#9193af;stop-opacity:1.0000000;"
         offset="1.0000000"
         id="stop10657" />
    </linearGradient>
    <linearGradient
       id="linearGradient42174">
      <stop
         style="stop-color:#a0a0a0;stop-opacity:1.0000000;"
         offset="0.0000000"
         id="stop42176" />
      <stop
         style="stop-color:#ffffff;stop-opacity:1.0000000;"
         offset="1.0000000"
         id="stop42178" />
    </linearGradient>
    <linearGradient
       id="linearGradient2145">
      <stop
         style="stop-color:#fffffd;stop-opacity:1.0000000;"
         offset="0.0000000"
         id="stop2147" />
      <stop
         style="stop-color:#cbcbc9;stop-opacity:1.0000000;"
         offset="1.0000000"
         id="stop2149" />
    </linearGradient>
    <linearGradient
       id="linearGradient37935">
      <stop
         id="stop37937"
         offset="0.0000000"
         style="stop-color:#9497b3;stop-opacity:1.0000000;" />
      <stop
         id="stop37939"
         offset="1.0000000"
         style="stop-color:#4c4059;stop-opacity:1.0000000;" />
    </linearGradient>
    <linearGradient
       id="linearGradient2152">
      <stop
         id="stop2154"
         offset="0.0000000"
         style="stop-color:#9aa29a;stop-opacity:1.0000000;" />
      <stop
         id="stop2156"
         offset="1.0000000"
         style="stop-color:#b5beb5;stop-opacity:1.0000000;" />
    </linearGradient>
    <linearGradient
       inkscape:collect="always"
       id="linearGradient3816">
      <stop
         style="stop-color:#000000;stop-opacity:1;"
         offset="0"
         id="stop3818" />
      <stop
         style="stop-color:#000000;stop-opacity:0;"
         offset="1"
         id="stop3820" />
    </linearGradient>
    <radialGradient
       inkscape:collect="always"
       xlink:href="#linearGradient3816"
       id="radialGradient3822"
       cx="31.112698"
       cy="19.008621"
       fx="31.112698"
       fy="19.008621"
       r="8.6620579"
       gradientUnits="userSpaceOnUse" />
    <linearGradient
       inkscape:collect="always"
       xlink:href="#linearGradient2152"
       id="linearGradient4307"
       gradientUnits="userSpaceOnUse"
       gradientTransform="matrix(3.123841,0.000000,0.000000,0.969691,-31.88758,-19.59492)"
       x1="8.9156475"
       y1="37.197018"
       x2="9.8855033"
       y2="52.090678" />
    <radialGradient
       inkscape:collect="always"
       xlink:href="#linearGradient10653"
       id="radialGradient4309"
       gradientUnits="userSpaceOnUse"
       cx="11.329200"
       cy="10.583970"
       fx="11.329200"
       fy="10.583970"
       r="15.532059" />
    <radialGradient
       inkscape:collect="always"
       xlink:href="#linearGradient2145"
       id="radialGradient4311"
       gradientUnits="userSpaceOnUse"
       cx="11.901996"
       cy="10.045444"
       fx="11.901996"
       fy="10.045444"
       r="29.292715" />
    <linearGradient
       inkscape:collect="always"
       xlink:href="#linearGradient42174"
       id="linearGradient4313"
       gradientUnits="userSpaceOnUse"
       x1="6.3422160"
       y1="7.7893324"
       x2="22.218424"
       y2="25.884274" />
    <radialGradient
       inkscape:collect="always"
       xlink:href="#linearGradient5196"
       id="radialGradient5202"
       cx="23.375"
       cy="10.972863"
       fx="23.375"
       fy="10.972863"
       r="3.3478092"
       gradientTransform="matrix(3.630420,1.654030e-15,-1.608743e-15,3.742066,-61.48607,-29.18618)"
       gradientUnits="userSpaceOnUse" />
    <linearGradient
       inkscape:collect="always"
       xlink:href="#linearGradient5204"
       id="linearGradient5210"
       x1="19.667364"
       y1="4.2570662"
       x2="20.329933"
       y2="5.2845874"
       gradientUnits="userSpaceOnUse" />
    <radialGradient
       inkscape:collect="always"
       xlink:href="#linearGradient37935"
       id="radialGradient5212"
       gradientUnits="userSpaceOnUse"
       cx="8.7468252"
       cy="6.8283234"
       fx="8.7468252"
       fy="6.8283234"
       r="29.889715" />
  </defs>
  <sodipodi:namedview
     stroke="#c4a000"
     fill="#babdb6"
     id="base"
     pagecolor="#ffffff"
     bordercolor="#666666"
     borderopacity="0.25490196"
     inkscape:pageopacity="0.0"
     inkscape:pageshadow="2"
     inkscape:zoom="11.313708"
     inkscape:cx="13.2248"
     inkscape:cy="25.106052"
     inkscape:current-layer="layer1"
     showgrid="false"
     inkscape:grid-bbox="true"
     inkscape:document-units="px"
     inkscape:showpageshadow="false"
     inkscape:window-width="833"
     inkscape:window-height="772"
     inkscape:window-x="305"
     inkscape:window-y="76" />
  <metadata
     id="metadata4">
    <rdf:RDF>
      <cc:Work
         rdf:about="">
        <dc:format>image/svg+xml</dc:format>
        <dc:type
           rdf:resource="http://purl.org/dc/dcmitype/StillImage" />
        <dc:creator>
          <cc:Agent>
            <dc:title>Jakub Steiner</dc:title>
          </cc:Agent>
        </dc:creator>
        <dc:source>http://jimmac.musichall.cz</dc:source>
        <cc:license
           rdf:resource="http://creativecommons.org/licenses/publicdomain/" />
        <dc:title>New Appointment</dc:title>
        <dc:subject>
          <rdf:Bag>
            <rdf:li>appointment</rdf:li>
            <rdf:li>new</rdf:li>
            <rdf:li>meeting</rdf:li>
            <rdf:li>rvsp</rdf:li>
          </rdf:Bag>
        </dc:subject>
      </cc:Work>
      <cc:License
         rdf:about="http://creativecommons.org/licenses/publicdomain/">
        <cc:permits
           rdf:resource="http://creativecommons.org/ns#Reproduction" />
        <cc:permits
           rdf:resource="http://creativecommons.org/ns#Distribution" />
        <cc:permits
           rdf:resource="http://creativecommons.org/ns#DerivativeWorks" />
      </cc:License>
    </rdf:RDF>
  </metadata>
  <g
     id="layer1"
     inkscape:label="Layer 1"
     inkscape:groupmode="layer">
    <path
       d="M 39.774755 19.008621 A 8.6620579 8.6620579 0 1 1  22.45064,19.008621 A 8.6620579 8.6620579 0 1 1  39.774755 19.008621 z"
       sodipodi:ry="8.6620579"
       sodipodi:rx="8.6620579"
       sodipodi:cy="19.008621"
       sodipodi:cx="31.112698"
       id="path4318"
       style="opacity:1;color:#000000;fill:url(#radialGradient3822);fill-opacity:1;fill-rule:evenodd;stroke:none;stroke-width:1px;stroke-linecap:round;stroke-linejoin:round;marker:none;marker-start:none;marker-mid:none;marker-end:none;stroke-miterlimit:4;stroke-dasharray:none;stroke-dashoffset:0;stroke-opacity:1;visibility:visible;display:inline;overflow:visible"
       sodipodi:type="arc"
       transform="matrix(2.563158,0.000000,0.000000,1.219602,-55.98414,14.04144)" />
    <path
       sodipodi:nodetypes="cccc"
       id="path14341"
       d="M 18.587591,1.403729 L 4.226755,18.096665 L 5.4854717,19.339844 L 18.587591,1.403729 z "
       style="color:#000000;fill:url(#linearGradient4307);fill-opacity:1;fill-rule:evenodd;stroke:none;stroke-width:1;stroke-linecap:butt;stroke-linejoin:miter;marker:none;marker-start:none;marker-mid:none;marker-end:none;stroke-miterlimit:4;stroke-dashoffset:0;stroke-opacity:1;visibility:visible;display:inline;overflow:visible" />
    <path
       sodipodi:nodetypes="cccc"
       id="path18921"
       d="M 18.467176,1.3138035 L 5.6605716,19.072612 L 7.4900985,20.687913 L 18.467176,1.3138035 z "
       style="fill:#fefefe;fill-opacity:1;fill-rule:evenodd;stroke:none;stroke-width:1;stroke-linecap:butt;stroke-linejoin:miter;stroke-miterlimit:4;stroke-opacity:1" />
    <path
       transform="matrix(1.431529,0.000000,0.000000,1.431529,0.569459,-1.654618)"
       d="M 31.160714 16.910715 A 14.910714 14.910714 0 1 1  1.3392859,16.910715 A 14.910714 14.910714 0 1 1  31.160714 16.910715 z"
       sodipodi:ry="14.910714"
       sodipodi:rx="14.910714"
       sodipodi:cy="16.910715"
       sodipodi:cx="16.25"
       id="path27786"
       style="fill:url(#radialGradient5212);fill-opacity:1;fill-rule:evenodd;stroke:#605773;stroke-width:0.69855404;stroke-linecap:round;stroke-linejoin:round;stroke-miterlimit:4;stroke-dashoffset:0;stroke-opacity:1"
       sodipodi:type="arc" />
    <path
       transform="matrix(1.163838,0.000000,0.000000,1.163838,4.824801,2.777556)"
       d="M 31.160714 16.910715 A 14.910714 14.910714 0 1 1  1.3392859,16.910715 A 14.910714 14.910714 0 1 1  31.160714 16.910715 z"
       sodipodi:ry="14.910714"
       sodipodi:rx="14.910714"
       sodipodi:cy="16.910715"
       sodipodi:cx="16.25"
       id="path35549"
       style="fill:url(#radialGradient4311);fill-opacity:1;fill-rule:evenodd;stroke:url(#linearGradient4313);stroke-width:0.71139598;stroke-linecap:round;stroke-linejoin:round;stroke-miterlimit:4;stroke-dashoffset:0;stroke-opacity:1"
       sodipodi:type="arc" />
    <path
       sodipodi:type="arc"
       style="opacity:1;color:#000000;fill:url(#radialGradient5202);fill-opacity:1;fill-rule:evenodd;stroke:url(#linearGradient5210);stroke-width:0.56498736;stroke-linecap:butt;stroke-linejoin:miter;marker:none;marker-start:none;marker-mid:none;marker-end:none;stroke-miterlimit:4;stroke-dasharray:none;stroke-dashoffset:0;stroke-opacity:1;visibility:visible;display:inline;overflow:visible"
       id="path4120"
       sodipodi:cx="23.375"
       sodipodi:cy="11.875"
       sodipodi:rx="8.5"
       sodipodi:ry="8.5"
       d="M 16.679382,6.6387137 A 8.5,8.5 0 0 1 23.332691,3.3751053 L 23.375,11.875 z"
       transform="matrix(1.769951,0.000000,0.000000,1.769951,-17.02424,1.610741)"
       sodipodi:start="3.8052902"
       sodipodi:end="4.7074114" />
    <path
       transform="matrix(2.073295,0.000000,0.000000,2.073295,-7.310224,-13.13682)"
       d="M 16.40625 17.28125 A 1.21875 1.21875 0 1 1  13.96875,17.28125 A 1.21875 1.21875 0 1 1  16.40625 17.28125 z"
       sodipodi:ry="1.21875"
       sodipodi:rx="1.21875"
       sodipodi:cy="17.28125"
       sodipodi:cx="15.1875"
       id="path34778"
       style="fill:#f3f3f3;fill-opacity:1;fill-rule:evenodd;stroke:#000000;stroke-width:0.48232403;stroke-linecap:round;stroke-linejoin:round;stroke-miterlimit:4;stroke-dashoffset:0;stroke-opacity:1;stroke-dasharray:none"
       sodipodi:type="arc" />
    <path
       id="path35559"
       d="M 22.176614,20.718014 L 13.155702,13.140282"
       style="fill:none;fill-opacity:0.75;fill-rule:evenodd;stroke:#000000;stroke-width:1;stroke-linecap:round;stroke-linejoin:miter;stroke-miterlimit:4;stroke-opacity:1;stroke-dasharray:none" />
    <path
       id="path35561"
       d="M 19.408614,29.776506 L 22.368655,25.283228"
       style="fill:none;fill-opacity:0.75;fill-rule:evenodd;stroke:#000000;stroke-width:2;stroke-linecap:round;stroke-linejoin:miter;stroke-miterlimit:4;stroke-opacity:1;stroke-dasharray:none"
       sodipodi:nodetypes="cc" />
    <path
       transform="matrix(2.749493,0.000000,0.000000,2.749493,-22.30073,-12.40939)"
       d="M 17.324117 7.6932044 A 0.61871845 0.61871845 0 1 1  16.08668,7.6932044 A 0.61871845 0.61871845 0 1 1  17.324117 7.6932044 z"
       sodipodi:ry="0.61871845"
       sodipodi:rx="0.61871845"
       sodipodi:cy="7.6932044"
       sodipodi:cx="16.705399"
       id="path35563"
       style="fill:#b6b9b1;fill-opacity:1;fill-rule:evenodd;stroke:none;stroke-width:1.36871839;stroke-linecap:round;stroke-linejoin:round;stroke-miterlimit:4;stroke-dashoffset:0;stroke-opacity:1;opacity:1"
       sodipodi:type="arc" />
    <path
       transform="matrix(2.749493,0.000000,0.000000,2.749493,-22.30073,14.80922)"
       d="M 17.324117 7.6932044 A 0.61871845 0.61871845 0 1 1  16.08668,7.6932044 A 0.61871845 0.61871845 0 1 1  17.324117 7.6932044 z"
       sodipodi:ry="0.61871845"
       sodipodi:rx="0.61871845"
       sodipodi:cy="7.6932044"
       sodipodi:cx="16.705399"
       id="path35565"
       style="fill:#b6b9b1;fill-opacity:1;fill-rule:evenodd;stroke:none;stroke-width:1.36871839;stroke-linecap:round;stroke-linejoin:round;stroke-miterlimit:4;stroke-dashoffset:0;stroke-opacity:1;opacity:1"
       sodipodi:type="arc" />
    <path
       transform="matrix(2.749493,0.000000,0.000000,2.749493,-35.91004,1.199890)"
       d="M 17.324117 7.6932044 A 0.61871845 0.61871845 0 1 1  16.08668,7.6932044 A 0.61871845 0.61871845 0 1 1  17.324117 7.6932044 z"
       sodipodi:ry="0.61871845"
       sodipodi:rx="0.61871845"
       sodipodi:cy="7.6932044"
       sodipodi:cx="16.705399"
       id="path35567"
       style="fill:#b6b9b1;fill-opacity:1;fill-rule:evenodd;stroke:none;stroke-width:1.36871839;stroke-linecap:round;stroke-linejoin:round;stroke-miterlimit:4;stroke-dashoffset:0;stroke-opacity:1;opacity:1"
       sodipodi:type="arc" />
    <path
       transform="matrix(2.749493,0.000000,0.000000,2.749493,-8.691448,1.199890)"
       d="M 17.324117 7.6932044 A 0.61871845 0.61871845 0 1 1  16.08668,7.6932044 A 0.61871845 0.61871845 0 1 1  17.324117 7.6932044 z"
       sodipodi:ry="0.61871845"
       sodipodi:rx="0.61871845"
       sodipodi:cy="7.6932044"
       sodipodi:cx="16.705399"
       id="path35569"
       style="fill:#b6b9b1;fill-opacity:1;fill-rule:evenodd;stroke:none;stroke-width:1.36871839;stroke-linecap:round;stroke-linejoin:round;stroke-miterlimit:4;stroke-dashoffset:0;stroke-opacity:1;opacity:1"
       sodipodi:type="arc" />
    <path
       sodipodi:type="arc"
       style="fill:none;fill-opacity:1;fill-rule:evenodd;stroke:url(#radialGradient4309);stroke-width:0.73656511;stroke-linecap:round;stroke-linejoin:round;stroke-miterlimit:4;stroke-dashoffset:0;stroke-opacity:1"
       id="path10651"
       sodipodi:cx="16.25"
       sodipodi:cy="16.910715"
       sodipodi:rx="14.910714"
       sodipodi:ry="14.910714"
       d="M 31.160714 16.910715 A 14.910714 14.910714 0 1 1  1.3392859,16.910715 A 14.910714 14.910714 0 1 1  31.160714 16.910715 z"
       transform="matrix(1.357654,0.000000,0.000000,1.357654,1.769896,-0.493735)" />
    <path
       sodipodi:type="arc"
       style="color:#000000;fill:url(#radialGradient278);fill-opacity:1;fill-rule:nonzero;stroke:none;stroke-width:1.25000024;stroke-linecap:butt;stroke-linejoin:round;marker:none;marker-start:none;marker-mid:none;marker-end:none;stroke-miterlimit:4;stroke-dashoffset:0;stroke-opacity:1;visibility:visible;display:block"
       id="path12511"
       sodipodi:cx="55"
       sodipodi:cy="125"
       sodipodi:rx="14.375"
       sodipodi:ry="14.375"
       d="M 69.375 125 A 14.375 14.375 0 1 1  40.625,125 A 14.375 14.375 0 1 1  69.375 125 z"
       transform="matrix(0.611127,0.000000,0.000000,0.611127,5.544052,-66.92818)"
       inkscape:export-filename="/home/jimmac/ximian_art/icons/nautilus/suse93/stock_new-16.png"
       inkscape:export-xdpi="33.852203"
       inkscape:export-ydpi="33.852203" />
  </g>
</svg>

<svg xmlns="http://www.w3.org/2000/svg" xmlns:xlink="http://www.w3.org/1999/xlink" viewBox="0 0 48 48"><defs><path id="A" d="M31.16071 16.910715A14.910714 14.910714 0 1 1 1.339286 16.910715 14.910714 14.910714 0 1 1 31.16071 16.910715z"/><path id="B" d="M17.324117 7.693204A.618718 .618718 0 1 1 16.08668 7.693204 .618718 .618718 0 1 1 17.324117 7.693204" fill="#b6b9b1" fill-rule="evenodd"/><linearGradient id="3" gradientUnits="userSpaceOnUse" gradientTransform="matrix(3.12384 0 0 .96969-31.888-19.595)" x1="8.916" y1="37.2" x2="9.886" y2="52.09"><stop stop-color="#9aa29a"/><stop offset="1" stop-color="#b5beb5"/></linearGradient><linearGradient id="6" gradientUnits="userSpaceOnUse" x1="6.342" y1="7.789" x2="22.22" y2="25.884"><stop stop-color="#a0a0a0"/><stop offset="1" stop-color="#fff"/></linearGradient><linearGradient xlink:href="#0" id="8" x1="19.667" y1="4.257" x2="20.33" y2="5.285" gradientUnits="userSpaceOnUse"/><linearGradient id="0"><stop stop-color="#c4a000"/><stop offset="1" stop-color="#c4a000" stop-opacity="0"/></linearGradient><radialGradient xlink:href="#0" id="7" cx="23.375" cy="10.973" r="3.348" gradientTransform="matrix(3.63042 0 0 3.74207-61.49-29.19)" gradientUnits="userSpaceOnUse"/><radialGradient id="5" gradientUnits="userSpaceOnUse" cx="11.902" cy="10.05" r="29.29"><stop stop-color="#fffffd"/><stop offset="1" stop-color="#cbcbc9"/></radialGradient><radialGradient id="9" gradientUnits="userSpaceOnUse" cx="8.747" cy="6.828" r="29.89"><stop stop-color="#9497b3"/><stop offset="1" stop-color="#4c4059"/></radialGradient><radialGradient id="1" gradientUnits="userSpaceOnUse" cx="55" cy="125" r="14.375"><stop stop-color="#fff"/><stop offset=".5" stop-color="#fff520" stop-opacity=".891"/><stop offset="1" stop-color="#fff300" stop-opacity="0"/></radialGradient><radialGradient id="4" gradientUnits="userSpaceOnUse" cx="11.329" cy="10.584" r="15.532"><stop stop-color="#f3f4ff"/><stop offset="1" stop-color="#9193af"/></radialGradient><radialGradient id="2" cx="31.11" cy="19.01" r="8.662" gradientUnits="userSpaceOnUse"><stop/><stop offset="1" stop-opacity="0"/></radialGradient></defs><g fill-rule="evenodd"><g color="#000"><path d="M39.774755 19.00862A8.662058 8.662058 0 1 1 22.45064 19.00862 8.662058 8.662058 0 1 1 39.774755 19.00862" transform="matrix(2.56316 0 0 1.2196-55.984 14.04)" fill="url(#2)"/><path d="m18.588 1.404l-14.361 16.693 1.259 1.243 13.1-17.936" fill="url(#3)"/></g><path d="m18.467 1.314l-12.807 17.759 1.83 1.615 10.977-19.374" fill="#fefefe"/><g stroke-linejoin="round" stroke-linecap="round"><use transform="matrix(1.43153 0 0 1.43153.569-1.655)" fill="url(#9)" stroke="#605773" stroke-width=".699" xlink:href="#A"/><use transform="matrix(1.16384 0 0 1.16384 4.825 2.778)" fill="url(#5)" stroke="url(#6)" stroke-width=".711" xlink:href="#A"/></g><path d="M16.679382 6.638714A8.5 8.5 0 0 1 23.332691 3.375105L23.375 11.875z" transform="matrix(1.76995 0 0 1.76995-17.02 1.611)" color="#000" stroke-width=".565" fill="url(#7)" stroke="url(#8)"/><g stroke="#000" stroke-linecap="round"><path transform="matrix(2.07329 0 0 2.07329-7.31-13.14)" d="M16.40625 17.28125A1.21875 1.21875 0 1 1 13.96875 17.28125 1.21875 1.21875 0 1 1 16.40625 17.28125z" fill="#f3f3f3" stroke-linejoin="round" stroke-width=".482"/><g fill="none" fill-opacity=".75"><path d="m22.18 20.718l-9.02-7.578"/><path d="m19.409 29.777l2.96-4.493" stroke-width="2"/></g></g></g><use transform="matrix(2.74949 0 0 2.74949-22.301-12.409)" xlink:href="#B"/><use transform="matrix(2.74949 0 0 2.74949-22.301 14.809)" xlink:href="#B"/><use transform="matrix(2.74949 0 0 2.74949-35.91 1.2)" xlink:href="#B"/><use transform="matrix(2.74949 0 0 2.74949-8.691 1.2)" xlink:href="#B"/><use transform="matrix(1.35765 0 0 1.35765 1.77-.494)" fill="none" fill-rule="evenodd" stroke="url(#4)" stroke-linejoin="round" stroke-linecap="round" stroke-width=".737" xlink:href="#A"/><path d="M69.375 125A14.375 14.375 0 1 1 40.625 125 14.375 14.375 0 1 1 69.375 125" transform="matrix(.61113 0 0 .61113 5.544-66.928)" fill="url(#1)" display="block" color="#000"/></svg>
